!! 00010] TT[TB
!! Eigene Aufnahme
!!!OTL: Zhenqui de lao hai The scales with silver weight
!!!ARE: Neimeng
!! Ethnic Group: Menggu
!! MM, S. 714
!!!SCT: C0559
!!!YEM: Copyright 1995, estate of Helmut Schaffrath.
**kern
*ICvox
*Ivox
*M2/4
*k[]
*C:
{4ee
8dd
8ee
=1
8g
8a
4cc
=2
8dd
8ee
4a
=3
4g
4c}
=4
{8e
8g
8c
8d
=5
8e
8g
8cc
8a
=6
8a
[4.g
=7
4.g]
8r}
=8
{4ee
8dd
8ee
=9
8g
8a
4cc
=10
8dd
8ee
4a
=11
4g
4c}
=12
{8e
8g
8c
8d
=13
8e
8g
8cc
8a
=14
8a
[4.g
=15
4.g]
8r}
==
!!!AGN: NN
!! Saenger: Chao Lun Batou, der das Buch nur zum Nachschlagen
!!    benutzte und ansonsten auswendig sang. Da er aus dem Osten der
!!    Neimeng kommt, kennt er nicht so viele Lieder des Westens.
!!    Alle Lieder wurden mit erkaelteter, halber Stimme in meinem
!!    Zimmer gesungen. FOTO VORHANDEN (DIAS)  31.3.87  Leicht variiert.
!!!ONB: ESAC (Essen Associative Code) Database: CHINA
!!!AMT: simple duple
!!!AIN: vox
!!!EED: Helmut Schaffrath
!!!EEV: 1.0
*-
!!!ONB: Tied note syntax fixed by Craig Sapp, 2004/05/03/
